Square/Nordea.svg

<?xml version="1.0" encoding="UTF-8"?>
<svg width="32px" height="32px" viewBox="0 0 32 32" version="1.1" xmlns="http://www.w3.org/2000/svg" xmlns:xlink="http://www.w3.org/1999/xlink">
    <!-- Generator: Sketch 52.3 (67297) - http://www.bohemiancoding.com/sketch -->
    <title>Square/Nordea</title>
    <desc>Created with Sketch.</desc>
    <g id="Square/Nordea" stroke="none" stroke-width="1" fill="none" fill-rule="evenodd">
        <path d="M0,0 L32,0 L32,32 L0,32 L0,0 Z M25.8976172,15.0701754 C24.9263519,15.1403509 24.1493397,15.9298246 24.0787022,16.8947368 C24.0080648,18.0350877 24.9086926,18.9824561 26.0388922,18.9824561 C26.4450577,18.9824561 26.9924981,18.7719298 27.2397292,18.3508772 L27.2397292,18.9298246 L27.9990821,18.9298246 L27.9990821,17.0701754 C28.0344008,15.8421053 27.0454762,14.9824561 25.8976172,15.0701754 Z M27.1867511,17.0701754 C27.1514324,17.7192982 26.5863326,18.2105263 25.9152766,18.122807 C25.4031549,18.0526316 24.9969894,17.6491228 24.9263519,17.1403509 C24.8557145,16.4561404 25.3854955,15.877193 26.0565515,15.877193 C26.6569701,15.877193 27.1514324,16.3508772 27.1867511,16.9473684 L27.1867511,17.0701754 Z M21.7300062,15.0701754 C20.6881034,15.1052632 19.805135,15.8947368 19.805135,17.0526316 C19.805135,18.1052632 20.6704441,19 21.7829843,19 C22.5599965,19 23.3193494,18.5438596 23.6195587,17.7894737 L22.8602058,17.5614035 C22.7189309,17.877193 22.3834028,18.1403509 22.0125561,18.2105263 C21.482775,18.3157895 20.9883127,17.9824561 20.7940597,17.6315789 L23.7431742,16.8245614 C23.6548774,16.0526316 22.9838214,15.0350877 21.7300062,15.0701754 Z M20.6351253,16.9298246 C20.6351253,16.5263158 20.8823565,16.0526316 21.4121376,15.8596491 C22.0125561,15.6315789 22.5423372,15.9298246 22.771909,16.3508772 L20.6351253,16.9298246 Z M15.2490179,15.8596491 L15.2490179,15.0526316 C14.5073244,15.0526316 14.2600932,15.4210526 14.1364776,15.6140351 L14.1364776,15.1754386 L13.288828,15.1754386 L13.288828,18.9122807 L14.154137,18.9122807 L14.154137,17.0701754 C14.154137,16.2280702 14.6485993,15.8947368 15.2490179,15.8596491 Z M7.46123627,17.4210526 L4.88296844,14.4035088 L4,14.4035088 L4,18.9122807 L4.91828717,18.9122807 L4.91828717,15.8947368 L7.53187375,18.9298246 L8.32654534,18.9298246 L8.32654534,14.4035088 L7.46123627,14.4035088 L7.46123627,17.4210526 Z M19.2930133,14 L18.4806824,14 L18.4806824,15.4736842 C18.2864293,15.2280702 17.6860108,15.0175439 17.1738891,15.0701754 C16.2026238,15.1403509 15.4256116,15.9298246 15.3549741,16.8947368 C15.2843366,18.0350877 16.1849644,18.9824561 17.315164,18.9824561 C17.7389889,18.9824561 18.321748,18.7894737 18.5160011,18.4210526 L18.5160011,18.9122807 L19.2753539,18.9122807 L19.2753539,16.9824561 L19.2930133,14 Z M18.4453636,17.0701754 C18.4100449,17.7192982 17.8449451,18.2105263 17.1738891,18.122807 C16.6617674,18.0526316 16.2556019,17.6491228 16.1849644,17.1403509 C16.1143269,16.4561404 16.644108,15.877193 17.315164,15.877193 C17.9155826,15.877193 18.4100449,16.3508772 18.4453636,16.9473684 L18.4453636,17.0701754 Z M10.8165163,15.0526316 C9.72163547,15.0526316 8.83866703,15.9298246 8.83866703,17.0175439 C8.83866703,18.1052632 9.72163547,18.9824561 10.8165163,18.9824561 C11.9113972,18.9824561 12.7943656,18.1052632 12.7943656,17.0175439 C12.7767063,15.9298246 11.8937378,15.0526316 10.8165163,15.0526316 Z M10.8165163,18.1403509 C10.1984384,18.1403509 9.68631673,17.6315789 9.68631673,17.0175439 C9.68631673,16.4035088 10.1984384,15.8947368 10.8165163,15.8947368 C11.4345942,15.8947368 11.9467159,16.4035088 11.9467159,17.0175439 C11.9467159,17.6491228 11.4345942,18.1403509 10.8165163,18.1403509 Z" id="Nordea" fill="#0000A0" fill-rule="nonzero"></path>
    </g>
</svg>

<svg width="32" height="32" xmlns="http://www.w3.org/2000/svg"><path d="M0 0h32v32H0V0zm25.898 15.07a1.98 1.98 0 0 0-1.82 1.825 1.961 1.961 0 0 0 1.96 2.087c.407 0 .954-.21 1.202-.631v.579H28v-1.86c.034-1.228-.955-2.088-2.102-2zm1.289 2c-.036.65-.6 1.14-1.272 1.053a1.158 1.158 0 0 1-.989-.983 1.138 1.138 0 0 1 1.13-1.263c.601 0 1.095.474 1.13 1.07v.123zm-5.457-2c-1.042.035-1.925.825-1.925 1.983 0 1.052.865 1.947 1.978 1.947.777 0 1.536-.456 1.837-1.21l-.76-.229a1.198 1.198 0 0 1-.847.65c-.53.105-1.025-.229-1.219-.58l2.95-.806c-.09-.772-.76-1.79-2.014-1.755zm-1.095 1.86c0-.404.247-.877.777-1.07.6-.228 1.13.07 1.36.49l-2.137.58zm-5.386-1.07v-.807c-.742 0-.989.368-1.113.561v-.439h-.847v3.737h.865V17.07c0-.842.495-1.175 1.095-1.21zm-7.788 1.56l-2.578-3.017H4v4.508h.918v-3.017l2.614 3.035h.795v-4.526H7.46v3.017zM19.293 14h-.812v1.474c-.195-.246-.795-.456-1.307-.404a1.98 1.98 0 0 0-1.819 1.825 1.961 1.961 0 0 0 1.96 2.087c.424 0 1.007-.193 1.201-.56v.49h.76v-1.93L19.292 14zm-.848 3.07c-.035.65-.6 1.14-1.271 1.053a1.158 1.158 0 0 1-.989-.983 1.138 1.138 0 0 1 1.13-1.263c.6 0 1.095.474 1.13 1.07v.123zm-7.628-2.017a1.968 1.968 0 0 0-1.978 1.965c0 1.087.883 1.964 1.978 1.964a1.968 1.968 0 0 0 1.977-1.964 1.991 1.991 0 0 0-1.977-1.965zm0 3.087c-.619 0-1.13-.508-1.13-1.122 0-.614.511-1.123 1.13-1.123.618 0 1.13.509 1.13 1.123 0 .631-.512 1.122-1.13 1.122z" fill="#0000A0"/></svg>
